assets/namemc/original.svg

<svg viewBox="0 0 24 24" xmlns="http://www.w3.org/2000/svg" fill="#12161A"><path d="m0 0v24h24v-24zm4.8 4.8h11.2v3.2h3.2v11.2h-3.2v-11.2h-8v11.2h-3.2v-11.2z"/></svg>

<svg xmlns="http://www.w3.org/2000/svg" fill="#12161a" viewBox="0 0 24 24"><path d="M0 0v24h24V0zm4.8 4.8H16V8h3.2v11.2H16V8H8v11.2H4.8V8z"/></svg>
